X:397
M:C|
L:1/8
K:G
c|BG G/G/G dBgd|BG G/G/G cA=FA|BG G/G/G dBga|bfgd BGG:|
|:f|e/f/g dg cgBg|A=ffc A=FFf|1 e/f/g dg cgBg|Afgd BGG:|2 gefd ecdB|

